!!!COM: Music21
!!!OTL: Miña nena
!!!OMV: pezas_pasacorredoiras_mina-nena_mina-nena-partitura.musicxml
**kern
*part1
*staff1
*I"Bagpipes
*I'Bag
*clefG^2
*k[]
*M2/4
=1
!LO:TX:a:t=Allegro
*MM132
!LO:TX:a:t=[quarter]=132
4.gg
8ff
=
4.ee
8dd
=
2cc
=
2ccc
=
4bb
16aaLL
16gg
16ff
16aaJJ
=
2ggT
=
4.gg
8ff
=
4.ee
8dd
=
8ccL
[8ffJ
4ff]
=
4.ee
8cc
=
4.dd
8b
!!linebreak:original
=
2cc;
.
=||
8.ggTL
16aaJk
16ggLL
16aa
16gg
16aaJJ
!!linebreak:original
=
4.gg
8ccc
=
8bbL
16aaL
16ggJJ
16ffLL
16ee
16ff
16aaJJ
=
2ggT
=
8.ggTL
16aaJk
16ggLL
16aa
16gg
16aaJJ
=
8ggL
8cccJ
8bbL
8aaJ
=
8ggL
16ffL
16eeJJ
16ddLL
16cc
16dd
16eeJJ
=
2ccT
=||
8.ggTL
16aaJk
16ggLL
16aa
16gg
16aaJJ
!!linebreak:original
=
4.gg
8ccc
=
8bbL
16aaL
16ggJJ
16ffLL
16ee
16ff
16aaJJ
=
2ggT
=
8.ggTL
16aaJk
16ggLL
16aa
16gg
16aaJJ
=
8ggL
8cccJ
8bbL
8aaJ
=
8ggL
16ffL
16eeJJ
16ddLL
16cc
16dd
16eeJJ
=
2ccT
=||
4.dd
8ff
=
4.eet
8gg
!!linebreak:original
=
16ffLL
16ee
16dd
16ccJJ
16ddLL
16ee
16ff
16aaJJ
=
2ggT
=
4.dd
8ff
=
4.eet
8gg
=
16ddLL
16ee
16ff
16eeJJ
16ddLL
16cc
16b
16ddJJ
=
2ccT
=||
4.dd
8ff
=
4.eet
8gg
!!linebreak:original
=
16ffLL
16ee
16dd
16ccJJ
16ddLL
16ee
16ff
16aaJJ
=
2ggT
=
4.dd
8ff
=
4.eet
8gg
=
16ddLL
16ee
16ff
16eeJJ
16ddLL
16cc
16b
16ddJJ
=
2ccT
=||
*k[b-e-a-]
*E-:
4.gg
8aa-
=
4.gg
8cc
!!pagebreak:original
=
16ffLL
16gg
16aa-
16bb-JJ
16cccLL
16bb-
16aa-
16ffJJ
=
2ggt
!!linebreak:original
=
4.gg
8aa-
=
4.gg
8cc
=
8.ffL
16ee-Jk
12ddL
12bn
12ddJ
=
2cc
=||
4.gg
8aa-
=
4.gg
8cc
=
16ffLL
16gg
16aa-
16bb-JJ
16cccLL
16bb-
16aa-
16ffJJ
=
2ggt
!!linebreak:original
=
4.gg
8aa-
=
4.gg
8cc
=
8.ffL
16ee-Jk
12ddL
12bn
12ddJ
=
2cc
=||
4.dd
8ee-
=
2cc
=
8.ffL
16ee-Jk
8ffL
8aa-J
=
2gg
=
4.dd
8een
=
2cc
!!linebreak:original
=
16ffLL
16een
16ff
16ddJJ
16eeLL
16cc
16dd
16bnJJ
=
2cc
!!linebreak:original
=||
*k[]
*C:
2cc
=
2ccc
=
4bb
4gg
=
2cc
=
4aa
4ff
=
4aa
4ccc
=
4bb
4gg
=
4ccc
4gg
=
2ccc
=
2aa
=
2ff
=
2aa
=
2ccc;
.
==
*-
!!!system-decoration: s1,s2
